site/static/img/social/insta.svg

<svg height="47" viewBox="0 0 47 47" width="47" xmlns="http://www.w3.org/2000/svg" xmlns:xlink="http://www.w3.org/1999/xlink"><mask id="a" fill="#fff"><path d="m.00003609.05804444h23.94153381v23.58639996h-23.94153381z" fill="#fff" fill-rule="evenodd"/></mask><g fill="none" fill-rule="evenodd"><circle cx="23.5" cy="23.5" fill="#fff" r="23.5"/><g fill="#e9364b" transform="translate(12 12)"><path d="m21.6437053 15.5088889c0 3.2440889-2.6694136 5.8721778-5.9599399 5.8721778h-7.42538345c-3.29233082 0-5.96102255-2.6280889-5.96102255-5.8721778v-7.31520001c0-3.24195556 2.66869173-5.87235556 5.96102255-5.87235556h7.42538345c3.2905263 0 5.9599399 2.6304 5.9599399 5.87235556zm-5.0784361-15.45084446h-9.18857146c-4.07440601 0-7.37666165 3.25368889-7.37666165 7.26808889v9.05191107c0 4.0129778 3.30225564 7.2664889 7.37666165 7.2664889h9.18857146c4.074406 0 7.3763007-3.2535111 7.3763007-7.2664889v-9.05191107c0-4.0144-3.3018947-7.26808889-7.3763007-7.26808889z" mask="url(#a)" transform="translate(0 .119822)"/><path d="m12.2919699 15.7498844c-2.0970225 0-3.79488719-1.6743111-3.79488719-3.7376 0-2.06577773 1.69786469-3.73813329 3.79488719-3.73813329 2.0946767 0 3.7936241 1.67235556 3.7936241 3.73813329 0 2.0632889-1.6989474 3.7376-3.7936241 3.7376m0-9.9500444c-3.48378945 0-6.30694734 2.78062222-6.30694734 6.2124444 0 3.4300445 2.82315789 6.2126223 6.30694734 6.2126223 3.4825263 0 6.3058647-2.7825778 6.3058647-6.2126223 0-3.43182218-2.8233384-6.2124444-6.3058647-6.2124444"/><path d="m19.7651729 5.70284444c0 .87253334-.7192782 1.57973334-1.6042105 1.57973334-.8854737 0-1.6027669-.7072-1.6027669-1.57973334 0-.87217777.7172932-1.5808 1.6027669-1.5808.8849323 0 1.6042105.70862223 1.6042105 1.5808"/></g></g></svg>

<?xml version="1.0" encoding="UTF-8"?>
<svg width="47px" height="47px" viewBox="0 0 47 47" version="1.1" xmlns="http://www.w3.org/2000/svg" xmlns:xlink="http://www.w3.org/1999/xlink">
    <!-- Generator: Sketch 61.1 (89650) - https://sketch.com -->
    <title>insta</title>
    <desc>Created with Sketch.</desc>
    <defs>
        <polygon id="path-1" points="3.60902256e-05 0.0580444444 23.9415699 0.0580444444 23.9415699 23.6444444 3.60902256e-05 23.6444444"></polygon>
    </defs>
    <g id="insta" stroke="none" stroke-width="1" fill="none" fill-rule="evenodd">
        <circle id="Oval-Copy-5" fill="#FFFFFF" cx="23.5" cy="23.5" r="23.5"></circle>
        <g id="Group-8" transform="translate(12.000000, 12.000000)">
            <g id="Group-3" transform="translate(0.000000, 0.119822)">
                <mask id="mask-2" fill="white">
                    <use xlink:href="#path-1"></use>
                </mask>
                <g id="Clip-2"></g>
                <path d="M21.6437053,15.5088889 C21.6437053,18.7529778 18.9742917,21.3810667 15.6837654,21.3810667 L8.25838195,21.3810667 C4.96605113,21.3810667 2.2973594,18.7529778 2.2973594,15.5088889 L2.2973594,8.19368889 C2.2973594,4.95173333 4.96605113,2.32133333 8.25838195,2.32133333 L15.6837654,2.32133333 C18.9742917,2.32133333 21.6437053,4.95173333 21.6437053,8.19368889 L21.6437053,15.5088889 Z M16.5652692,0.0580444444 L7.37669774,0.0580444444 C3.30229173,0.0580444444 3.60902256e-05,3.31173333 3.60902256e-05,7.32613333 L3.60902256e-05,16.3780444 C3.60902256e-05,20.3910222 3.30229173,23.6445333 7.37669774,23.6445333 L16.5652692,23.6445333 C20.6396752,23.6445333 23.9415699,20.3910222 23.9415699,16.3780444 L23.9415699,7.32613333 C23.9415699,3.31173333 20.6396752,0.0580444444 16.5652692,0.0580444444 L16.5652692,0.0580444444 Z" id="Fill-1" fill="#E9364B" mask="url(#mask-2)"></path>
            </g>
            <path d="M12.2919699,15.7498844 C10.1949474,15.7498844 8.49708271,14.0755733 8.49708271,12.0122844 C8.49708271,9.94650667 10.1949474,8.27415111 12.2919699,8.27415111 C14.3866466,8.27415111 16.085594,9.94650667 16.085594,12.0122844 C16.085594,14.0755733 14.3866466,15.7498844 12.2919699,15.7498844 M12.2919699,5.79984 C8.80818045,5.79984 5.98502256,8.58046222 5.98502256,12.0122844 C5.98502256,15.4423289 8.80818045,18.2249067 12.2919699,18.2249067 C15.7744962,18.2249067 18.5978346,15.4423289 18.5978346,12.0122844 C18.5978346,8.58046222 15.7744962,5.79984 12.2919699,5.79984" id="Fill-4" fill="#E9364B"></path>
            <path d="M19.7651729,5.70284444 C19.7651729,6.57537778 19.0458947,7.28257778 18.1609624,7.28257778 C17.2754887,7.28257778 16.5581955,6.57537778 16.5581955,5.70284444 C16.5581955,4.83066667 17.2754887,4.12204444 18.1609624,4.12204444 C19.0458947,4.12204444 19.7651729,4.83066667 19.7651729,5.70284444" id="Fill-6" fill="#E9364B"></path>
        </g>
    </g>
</svg>
